brandFactory_export/2.Regular/Descuento_2Regular.svg

<?xml version="1.0" encoding="UTF-8"?>
<svg width="24px" height="24px" viewBox="0 0 24 24" version="1.1" xmlns="http://www.w3.org/2000/svg" xmlns:xlink="http://www.w3.org/1999/xlink">
    <title>2.Regular/Descuento_2Regular</title>
    <g id="Symbols" stroke="none" stroke-width="1" fill="none" fill-rule="evenodd">
        <g id="2.Regular/Descuento_2Regular" fill="#5CB615" fill-rule="nonzero">
            <path d="M21.7747899,11.9865546 C21.9563025,11.805042 22.0806723,11.5932773 22.107563,11.4151261 L22.097479,11.1932773 L22.107563,1.83865546 C22.107563,1.6605042 21.9630252,1.51596639 21.7815126,1.51596639 L12.1714286,1.51596639 C12.0403361,1.54621849 11.8184874,1.67394958 11.6403361,1.85546218 L1.86554622,11.6268908 C1.51596639,11.9764706 1.48907563,12.3394958 1.52941176,12.4 L11.2201681,22.087395 C11.287395,22.1378151 11.6605042,22.1008403 12,21.7579832 L21.7747899,11.9865546 Z M23.6235294,1.84201681 L23.6168067,11.1731092 L23.6235294,11.4252101 C23.6235294,11.4588235 23.6168067,11.5697479 23.6134454,11.6033613 C23.5193277,12.1579832 23.2537815,12.6689076 22.8504202,13.0588235 L13.0722689,22.8302521 C12.5512605,23.3512605 11.9092437,23.6235294 11.3176471,23.6235294 C10.8739496,23.6235294 10.4605042,23.4722689 10.1478992,23.1596639 L0.457142857,13.4722689 C0.0806722689,13.0957983 -0.0739495798,12.5378151 0.0336134454,11.9428571 C0.127731092,11.4453782 0.393277311,10.9512605 0.789915966,10.5546218 L10.5680672,0.783193277 C10.9714286,0.379831933 11.4621849,0.11092437 11.9563025,0.0201680672 C11.9798319,0.0134453782 12.087395,0.00336134454 12.107563,0.00336134454 L21.7815126,0 C22.7966387,0 23.6201681,0.826890756 23.6235294,1.84201681 Z M18.7596639,6.91428571 C19.5092437,6.16470588 19.502521,5.42857143 18.7394958,4.66218487 C18.3529412,4.27563025 17.9731092,4.08067227 17.5966387,4.08067227 C17.2268908,4.08067227 16.8571429,4.26890756 16.487395,4.63865546 C15.7378151,5.38823529 15.7445378,6.12436975 16.507563,6.8907563 C17.2705882,7.65714286 18.0067227,7.66722689 18.7596639,6.91428571 Z M15.4117647,3.5697479 C16.7596639,2.22184874 18.4470588,2.22857143 19.8084034,3.59327731 C21.1731092,4.95798319 21.1798319,6.64201681 19.8319328,7.98991597 C19.1596639,8.66218487 18.4067227,8.99831933 17.6504202,8.99831933 C16.8840336,8.99831933 16.1210084,8.65546218 15.4352941,7.9697479 C14.0705882,6.60504202 14.0605042,4.91764706 15.4117647,3.5697479 L15.4117647,3.5697479 Z" id="Descuento_2Regular"></path>
        </g>
    </g>
</svg>

<svg width="24" height="24" viewBox="0 0 24 24" xmlns="http://www.w3.org/2000/svg"><path d="M21.775 11.987c.181-.182.306-.394.333-.572l-.01-.222.01-9.354a.324.324 0 00-.326-.323h-9.61c-.132.03-.354.158-.532.34l-9.774 9.77c-.35.35-.377.713-.337.774l9.691 9.687c.067.05.44.014.78-.329l9.775-9.771zm1.849-10.145l-.007 9.331.007.252c0 .034-.007.145-.01.178a2.635 2.635 0 01-.764 1.456l-9.778 9.771c-.52.521-1.163.794-1.754.794a1.62 1.62 0 01-1.17-.464l-9.69-9.688c-.377-.376-.532-.934-.424-1.53.094-.497.36-.99.756-1.387L10.568.783c.403-.403.894-.672 1.388-.763.024-.007.131-.017.152-.017L21.782 0c1.015 0 1.838.827 1.842 1.842zM18.76 6.914c.75-.75.743-1.485-.02-2.252-.387-.386-.767-.581-1.143-.581-.37 0-.74.188-1.11.558-.75.75-.742 1.485.02 2.252.764.766 1.5.776 2.253.023zM15.412 3.57c1.348-1.348 3.035-1.341 4.396.023 1.365 1.365 1.372 3.049.024 4.397-.672.672-1.425 1.008-2.182 1.008-.766 0-1.529-.343-2.215-1.028-1.364-1.365-1.374-3.052-.023-4.4z" fill="#5CB615" fill-rule="nonzero"/></svg>
